public/assets/images/others/stars-02.svg

<svg width="104" height="28" viewBox="0 0 104 28" fill="none" xmlns="http://www.w3.org/2000/svg">
<g clip-path="url(#clip0_309_3667)">
<path d="M27.3317 9.92383H37.8621V12.0777H33.7215V24.1855H31.4447V12.0777H27.3225V9.92383H27.3317ZM37.4122 13.8591H39.3585V15.8519H39.3953C39.4595 15.5701 39.5789 15.2984 39.7533 15.0367C39.9277 14.775 40.1389 14.5234 40.3868 14.312C40.6347 14.0906 40.9101 13.9195 41.213 13.7786C41.516 13.6478 41.8282 13.5773 42.1403 13.5773C42.379 13.5773 42.5534 13.5874 42.6453 13.5974C42.7371 13.6075 42.8289 13.6276 42.9299 13.6377V15.8318C42.783 15.8016 42.6361 15.7815 42.48 15.7614C42.3239 15.7412 42.177 15.7312 42.0301 15.7312C41.6813 15.7312 41.3508 15.8117 41.0386 15.9626C40.7265 16.1136 40.4602 16.3451 40.2307 16.637C40.0012 16.9389 39.8176 17.3013 39.6799 17.7441C39.5421 18.1869 39.4779 18.6902 39.4779 19.2639V24.1754H37.403V13.8591H37.4122ZM52.4687 24.1855H50.4306V22.7463H50.3938C50.1368 23.2696 49.7604 23.6823 49.2554 23.9943C48.7505 24.3063 48.2364 24.4673 47.713 24.4673C46.4736 24.4673 45.5739 24.1352 45.0231 23.4608C44.4722 22.7865 44.1968 21.77 44.1968 20.4112V13.8591H46.2717V20.1898C46.2717 21.0956 46.4277 21.7398 46.7491 22.1122C47.0612 22.4846 47.5111 22.6758 48.0803 22.6758C48.521 22.6758 48.879 22.6054 49.1728 22.4544C49.4666 22.3034 49.7053 22.1122 49.8797 21.8606C50.0633 21.619 50.1919 21.3171 50.2745 20.9749C50.3571 20.6327 50.3938 20.2603 50.3938 19.8577V13.8692H52.4687V24.1855ZM56.0033 20.8742C56.0676 21.5385 56.2971 22.0015 56.6919 22.2732C57.0958 22.5349 57.5732 22.6758 58.1332 22.6758C58.326 22.6758 58.5464 22.6557 58.7943 22.6255C59.0421 22.5953 59.2808 22.5248 59.492 22.4342C59.7123 22.3437 59.8868 22.2028 60.0337 22.0216C60.1714 21.8404 60.2356 21.6089 60.2265 21.3171C60.2173 21.0252 60.1163 20.7836 59.9327 20.6025C59.7491 20.4112 59.5195 20.2703 59.2349 20.1496C58.9503 20.0389 58.629 19.9382 58.2618 19.8577C57.8945 19.7772 57.5273 19.6866 57.1509 19.596C56.7653 19.5054 56.3889 19.3846 56.0308 19.2538C55.6728 19.123 55.3515 18.9418 55.0669 18.7103C54.7823 18.4889 54.5527 18.197 54.3875 17.8447C54.2131 17.4925 54.1304 17.0597 54.1304 16.5363C54.1304 15.9727 54.259 15.5097 54.5068 15.1273C54.7547 14.7448 55.076 14.4429 55.4525 14.2114C55.838 13.9799 56.2604 13.8189 56.7286 13.7182C57.1968 13.6276 57.6467 13.5773 58.069 13.5773C58.5556 13.5773 59.0238 13.6377 59.4645 13.7484C59.9051 13.8591 60.3091 14.0403 60.6671 14.302C61.0252 14.5536 61.319 14.8857 61.5577 15.2883C61.7964 15.6909 61.9433 16.1841 62.0075 16.7578H59.8409C59.7399 16.2143 59.5195 15.8419 59.1615 15.6607C58.8034 15.4695 58.3903 15.3789 57.9313 15.3789C57.7844 15.3789 57.6099 15.389 57.408 15.4192C57.206 15.4493 57.0224 15.4997 56.8388 15.5701C56.6643 15.6406 56.5174 15.7513 56.3889 15.8922C56.2695 16.0331 56.2053 16.2143 56.2053 16.4458C56.2053 16.7276 56.2971 16.949 56.4715 17.1201C56.646 17.2912 56.8755 17.4321 57.1601 17.5529C57.4447 17.6636 57.766 17.7642 58.1332 17.8447C58.5005 17.9253 58.8769 18.0158 59.2625 18.1064C59.6389 18.197 60.0061 18.3178 60.3734 18.4486C60.7406 18.5795 61.0619 18.7606 61.3465 18.9921C61.6311 19.2236 61.8606 19.5054 62.0351 19.8476C62.2095 20.1898 62.3013 20.6226 62.3013 21.1258C62.3013 21.7398 62.1728 22.2531 61.9157 22.6859C61.6587 23.1086 61.3282 23.4609 60.9242 23.7225C60.5202 23.9842 60.0612 24.1855 59.5654 24.3063C59.0697 24.4271 58.5739 24.4875 58.0873 24.4875C57.4906 24.4875 56.9397 24.417 56.4348 24.266C55.9299 24.1151 55.4892 23.8936 55.1219 23.6018C54.7547 23.2998 54.4609 22.9274 54.2498 22.4846C54.0386 22.0417 53.9284 21.5083 53.9101 20.8944H56.0033V20.8742ZM62.8522 13.8591H64.4221V10.7592H66.4969V13.8591H68.3698V15.5601H66.4969V21.0755C66.4969 21.3171 66.5061 21.5184 66.5245 21.6995C66.5429 21.8706 66.5888 22.0216 66.653 22.1424C66.7173 22.2632 66.8183 22.3537 66.956 22.4141C67.0937 22.4745 67.2681 22.5047 67.5068 22.5047C67.6537 22.5047 67.8006 22.5047 67.9475 22.4946C68.0944 22.4846 68.2413 22.4644 68.3882 22.4242V24.1855C68.1587 24.2157 67.9291 24.2358 67.718 24.266C67.4977 24.2962 67.2773 24.3063 67.0478 24.3063C66.4969 24.3063 66.0563 24.2459 65.7258 24.1352C65.3953 24.0245 65.129 23.8534 64.9454 23.632C64.7526 23.4105 64.6332 23.1388 64.5598 22.8066C64.4955 22.4745 64.4496 22.0921 64.4405 21.6693V15.5802H62.8705V13.8591H62.8522ZM69.8388 13.8591H71.8034V15.2581H71.8402C72.134 14.6542 72.5379 14.2315 73.0612 13.9698C73.5845 13.7082 74.1445 13.5773 74.7597 13.5773C75.5033 13.5773 76.146 13.7182 76.6968 14.0101C77.2477 14.2919 77.7067 14.6844 78.0739 15.1877C78.4412 15.6909 78.7074 16.2747 78.891 16.9389C79.0746 17.6032 79.1664 18.3178 79.1664 19.0726C79.1664 19.7671 79.0838 20.4414 78.9186 21.0856C78.7533 21.7398 78.5054 22.3135 78.1749 22.8167C77.8444 23.3199 77.4221 23.7125 76.908 24.0144C76.3938 24.3163 75.7971 24.4673 75.0994 24.4673C74.7964 24.4673 74.4934 24.4371 74.1904 24.3767C73.8875 24.3163 73.5937 24.2157 73.3183 24.0849C73.0429 23.954 72.7766 23.7829 72.5471 23.5716C72.3084 23.3602 72.1156 23.1186 71.9503 22.8469H71.9136V28H69.8388V13.8591ZM77.0916 19.0324C77.0916 18.5694 77.0365 18.1165 76.9263 17.6736C76.8162 17.2308 76.6509 16.8483 76.4306 16.5061C76.2102 16.1639 75.9348 15.8922 75.6135 15.6909C75.283 15.4896 74.9065 15.3789 74.4842 15.3789C73.6121 15.3789 72.951 15.711 72.5104 16.3753C72.0697 17.0396 71.8493 17.9253 71.8493 19.0324C71.8493 19.5557 71.9044 20.0389 72.0238 20.4817C72.1431 20.9245 72.3084 21.307 72.5471 21.6291C72.7766 21.9511 73.052 22.2028 73.3734 22.3839C73.6947 22.5752 74.0711 22.6657 74.4934 22.6657C74.9708 22.6657 75.3656 22.555 75.6961 22.3437C76.0266 22.1323 76.2928 21.8505 76.504 21.5184C76.7152 21.1762 76.8712 20.7937 76.963 20.3609C77.0457 19.9281 77.0916 19.4853 77.0916 19.0324ZM80.7547 9.92383H82.8296V12.0777H80.7547V9.92383ZM80.7547 13.8591H82.8296V24.1855H80.7547V13.8591ZM84.6841 9.92383H86.759V24.1855H84.6841V9.92383ZM93.1212 24.4673C92.3684 24.4673 91.6982 24.3264 91.1107 24.0547C90.5231 23.7829 90.0273 23.4005 89.6142 22.9274C89.2102 22.4443 88.8981 21.8706 88.6869 21.2064C88.4758 20.5421 88.3656 19.8074 88.3656 19.0123C88.3656 18.2272 88.4758 17.5025 88.6869 16.8383C88.8981 16.174 89.2102 15.6003 89.6142 15.1172C90.0181 14.6341 90.5231 14.2617 91.1107 13.99C91.6982 13.7182 92.3684 13.5773 93.1212 13.5773C93.8741 13.5773 94.5443 13.7182 95.1318 13.99C95.7194 14.2617 96.2152 14.6442 96.6283 15.1172C97.0323 15.6003 97.3444 16.174 97.5556 16.8383C97.7667 17.5025 97.8769 18.2272 97.8769 19.0123C97.8769 19.8074 97.7667 20.5421 97.5556 21.2064C97.3444 21.8706 97.0323 22.4443 96.6283 22.9274C96.2243 23.4105 95.7194 23.7829 95.1318 24.0547C94.5443 24.3264 93.8741 24.4673 93.1212 24.4673ZM93.1212 22.6657C93.5803 22.6657 93.9842 22.555 94.3239 22.3437C94.6636 22.1323 94.939 21.8505 95.1594 21.5083C95.3797 21.1661 95.5358 20.7736 95.646 20.3408C95.747 19.908 95.802 19.4652 95.802 19.0123C95.802 18.5694 95.747 18.1366 95.646 17.6938C95.545 17.2509 95.3797 16.8685 95.1594 16.5263C94.939 16.1841 94.6636 15.9123 94.3239 15.701C93.9842 15.4896 93.5803 15.3789 93.1212 15.3789C92.6622 15.3789 92.2582 15.4896 91.9186 15.701C91.5789 15.9123 91.3034 16.1941 91.0831 16.5263C90.8628 16.8685 90.7067 17.2509 90.5965 17.6938C90.4955 18.1366 90.4405 18.5694 90.4405 19.0123C90.4405 19.4652 90.4955 19.908 90.5965 20.3408C90.6975 20.7736 90.8628 21.1661 91.0831 21.5083C91.3034 21.8505 91.5789 22.1323 91.9186 22.3437C92.2582 22.5651 92.6622 22.6657 93.1212 22.6657ZM98.4828 13.8591H100.053V10.7592H102.128V13.8591H104V15.5601H102.128V21.0755C102.128 21.3171 102.137 21.5184 102.155 21.6995C102.174 21.8706 102.219 22.0216 102.284 22.1424C102.348 22.2632 102.449 22.3537 102.587 22.4141C102.724 22.4745 102.899 22.5047 103.137 22.5047C103.284 22.5047 103.431 22.5047 103.578 22.4946C103.725 22.4846 103.872 22.4644 104.019 22.4242V24.1855C103.789 24.2157 103.56 24.2358 103.349 24.266C103.128 24.2962 102.908 24.3063 102.678 24.3063C102.128 24.3063 101.687 24.2459 101.356 24.1352C101.026 24.0245 100.76 23.8534 100.576 23.632C100.383 23.4105 100.264 23.1388 100.19 22.8066C100.126 22.4745 100.08 22.0921 100.071 21.6693V15.5802H98.5012V13.8591H98.4828Z" fill="#111032"/>
<path d="M24.9075 9.92379H15.3962L12.4583 0L9.5113 9.92379L0 9.91373L7.70268 16.0532L4.75565 25.9669L12.4583 19.8375L20.1518 25.9669L17.214 16.0532L24.9075 9.92379Z" fill="#615EFC"/>
<path d="M17.8757 18.2972L17.2146 16.0527L12.459 19.8371L17.8757 18.2972Z" fill="#005128"/>
</g>
<defs>
<clipPath id="clip0_309_3667">
<rect width="104" height="28" fill="white"/>
</clipPath>
</defs>
</svg>

<svg xmlns="http://www.w3.org/2000/svg" width="104" height="28" fill="none" viewBox="0 0 104 28"><g clip-path="url(#a)"><path fill="#111032" d="M27.332 9.924h10.53v2.154h-4.14v12.108h-2.277V12.078h-4.122V9.924zm10.08 3.935h1.947v1.993h.036q.096-.423.358-.815a3.5 3.5 0 0 1 1.46-1.258c.303-.131.615-.202.927-.202.239 0 .413.01.505.02s.184.03.285.04v2.195a6 6 0 0 0-.45-.07 4 4 0 0 0-.45-.03c-.349 0-.68.08-.991.23a2.3 2.3 0 0 0-.808.675c-.23.302-.413.664-.551 1.107s-.202.946-.202 1.52v4.911h-2.075V13.86zM52.47 24.186h-2.04v-1.44h-.037a3 3 0 0 1-1.139 1.248c-.505.312-1.019.473-1.542.473-1.24 0-2.14-.332-2.69-1.006q-.825-1.011-.826-3.05V13.86h2.075v6.33c0 .907.156 1.55.477 1.923.312.373.762.564 1.331.564.441 0 .799-.07 1.093-.222.294-.15.532-.342.707-.593.183-.242.312-.544.395-.886.082-.342.119-.715.119-1.117V13.87h2.075zm3.534-3.312c.065.665.294 1.128.689 1.4.404.26.881.402 1.441.402.193 0 .413-.02.661-.05s.487-.101.698-.192c.22-.09.395-.231.542-.412.137-.182.202-.413.193-.705a1 1 0 0 0-.294-.715 2 2 0 0 0-.698-.452 6.5 6.5 0 0 0-.973-.292c-.367-.08-.735-.171-1.111-.262a10 10 0 0 1-1.12-.342 3.3 3.3 0 0 1-.964-.544 2.34 2.34 0 0 1-.68-.865c-.174-.352-.257-.785-.257-1.309 0-.563.129-1.026.377-1.409.248-.382.569-.684.946-.916a4.1 4.1 0 0 1 1.276-.493 7 7 0 0 1 1.34-.14c.487 0 .955.06 1.395.17s.845.292 1.203.554c.358.252.652.584.89.986.24.403.386.896.45 1.47h-2.166c-.101-.544-.322-.916-.68-1.097-.358-.191-.77-.282-1.23-.282-.147 0-.321.01-.523.04s-.386.08-.57.151a1.2 1.2 0 0 0-.45.322.82.82 0 0 0-.183.554.9.9 0 0 0 .267.674c.174.171.404.312.688.433.285.11.606.211.973.292s.744.17 1.13.261c.376.091.743.212 1.11.343.368.13.689.312.974.543.284.232.514.513.688.856.175.342.266.775.266 1.278 0 .614-.128 1.127-.385 1.56a3.2 3.2 0 0 1-.992 1.037 4.4 4.4 0 0 1-1.359.583 6.2 6.2 0 0 1-1.478.181 5.8 5.8 0 0 1-1.652-.221 3.9 3.9 0 0 1-1.313-.664 3.2 3.2 0 0 1-.872-1.117c-.211-.443-.322-.977-.34-1.59h2.093zm6.85-7.015h1.57v-3.1h2.074v3.1h1.873v1.701h-1.873v5.516c0 .241.01.442.028.624.018.17.064.322.128.442q.096.182.303.272c.138.06.312.09.55.09.148 0 .295 0 .442-.01.146-.01.293-.03.44-.07v1.762c-.23.03-.459.05-.67.08a5 5 0 0 1-.67.04c-.551 0-.992-.06-1.322-.17s-.597-.283-.78-.504c-.193-.222-.313-.493-.386-.825a7 7 0 0 1-.12-1.138V15.58h-1.57v-1.72zm6.986 0h1.964v1.4h.037c.294-.605.698-1.027 1.221-1.29a3.7 3.7 0 0 1 1.699-.392c.743 0 1.386.141 1.937.433q.826.422 1.377 1.178c.367.503.633 1.087.817 1.75.184.665.275 1.38.275 2.135 0 .694-.082 1.368-.247 2.013a5.6 5.6 0 0 1-.744 1.73 3.8 3.8 0 0 1-1.267 1.198c-.514.302-1.11.453-1.809.453a4.6 4.6 0 0 1-.909-.09 3.8 3.8 0 0 1-.872-.292 3.1 3.1 0 0 1-.77-.513 3.1 3.1 0 0 1-.598-.725h-.036V28H69.84zm7.253 5.173q0-.695-.166-1.358a3.8 3.8 0 0 0-.495-1.168 2.6 2.6 0 0 0-.817-.815 2.13 2.13 0 0 0-1.13-.312c-.872 0-1.533.332-1.974.996q-.66.997-.66 2.657c0 .524.054 1.007.174 1.45.12.442.284.825.523 1.147q.345.483.826.755c.322.191.698.282 1.12.282.478 0 .873-.111 1.203-.322s.597-.494.808-.826c.211-.342.367-.724.459-1.157.083-.433.129-.876.129-1.329m3.663-9.108h2.075v2.154h-2.075zm0 3.935h2.075v10.327h-2.075zm3.93-3.935h2.074v14.262h-2.075zm8.436 14.543c-.753 0-1.423-.14-2.01-.412a4.45 4.45 0 0 1-1.497-1.128 5 5 0 0 1-.927-1.72 7.2 7.2 0 0 1-.321-2.195c0-.785.11-1.51.32-2.174a5 5 0 0 1 .928-1.72 4.24 4.24 0 0 1 1.497-1.128c.587-.272 1.257-.413 2.01-.413s1.423.141 2.01.413a4.45 4.45 0 0 1 1.497 1.127q.608.725.928 1.721c.21.665.32 1.39.32 2.174 0 .795-.11 1.53-.32 2.194a5 5 0 0 1-.928 1.721 4.24 4.24 0 0 1-1.496 1.128c-.588.271-1.258.412-2.01.412m0-1.801c.46 0 .863-.111 1.203-.322s.615-.494.835-.836a4 4 0 0 0 .487-1.167c.101-.433.156-.876.156-1.329 0-.443-.055-.875-.156-1.318a3.6 3.6 0 0 0-.487-1.168 2.6 2.6 0 0 0-.835-.825 2.24 2.24 0 0 0-1.203-.322c-.459 0-.863.11-1.202.322a2.7 2.7 0 0 0-.836.825c-.22.343-.376.725-.486 1.168a6 6 0 0 0-.156 1.318c0 .453.055.896.156 1.329.1.433.266.825.486 1.167s.496.624.836.836c.34.221.743.322 1.202.322m5.362-8.807h1.57v-3.1h2.075v3.1H104v1.701h-1.872v5.516c0 .241.009.442.027.624.019.17.064.322.129.442q.096.182.303.272c.137.06.312.09.55.09.147 0 .294 0 .441-.01s.294-.03.441-.07v1.762c-.23.03-.459.05-.67.08-.221.03-.441.04-.671.04-.55 0-.991-.06-1.322-.17-.33-.111-.596-.283-.78-.504-.193-.222-.312-.493-.386-.825a7 7 0 0 1-.119-1.138V15.58h-1.57v-1.72z"/><path fill="#615efc" d="M24.908 9.924h-9.512L12.458 0 9.511 9.924 0 9.914l7.703 6.14-2.947 9.913 7.702-6.13 7.694 6.13-2.938-9.914z"/><path fill="#005128" d="m17.876 18.297-.661-2.244-4.756 3.784z"/></g><defs><clipPath id="a"><path fill="#fff" d="M0 0h104v28H0z"/></clipPath></defs></svg>
